X:69
T:The Flowers That Bloom in the Spring
% Four-part piano arrangement for standard notation.
C:W.S. Gilbert/Arthur Sullivan
S:Source "The One Hundred and One Best Songs" - The Cable Company - 1919 - Chicago, Illinois
M:6/8
L:1/8
Q:1/8=170
%%staves [(1 2) (3 4)]
%%vocalfont Times-Roman 13
K:Ab
V:1 clef=treble
A | A > B A A > B A | A z e e z c | c > B A B E B | A3 z2
w:1.~The flow-ers that bloom in the spring, Tra la, Breathe prom-ise of mer-ry sun-shine
w:2.~The flow-ers that bloom in the spring, Tra la, Have noth-ing to do with the case;
V:2 clef=treble
E | E > E E E > E E | E z A A z E | E > D C D D D | C3 z2
V:3 clef=bass
%%MIDI transpose -24
%%jsastem=dn
c' | c' > d' c' c' > d' c' | c' z c' c' z a | a > g a g g g | a3 z2
V:4 clef=bass
%%MIDI transpose -24
%%jsastem=dn
a | a > a a a > a a | a z a a z A | e > e e e e e | A3 z2
V:1
A/- A/ | A > B A A > B A | A z e e z c | c > d c c > d c | c z f f z
w:As we mer-ri-ly dance and we sing, Tra la, We wel-come the hope that they bring, Tra la,
w:I've* got to take un-der my wing, Tra la, A most un-at-tract-ive old thing, Tra la,
V:2
E/- E/ | E > E E E > E E | E z A A z E | =E > =E =E =E > =E =E | F z A A z
V:3
c'/- c'/ | c' > d' c' c' > d' c' | c' z c' c' z a | b > b b b > b b | a z c' c' z
V:4
a/- a/ | a > a a a > a a | a z a a z a | g > g g c > c c | f z f f z
V:1
c/- c/ | B > c B B > c B | e3 E2 c | B > c B B > c B | E3 z2 E |
w:Of a sum-mer of ro-ses so fine, Of a sum-mer of ro-ses so fine; And
w:With a car-i-ca-ture of a face, With a car-i-ca-ture of a face; And
V:2
F/- F/ | =D > =D =D =D > =D =D | E3 E2 E | E > E E =D > =D =D | E3 z2 E |
V:3
a/- a/ | a > a a a > a a | g3 g2 a | g > g g a > a a | g3 z2 c |
V:4
f/- f/ | f > f f B > B B | e3 e2 A | B > B B B > B B | e3 z2 c |
V:1
F G A d c d | B A B G2 E | F G A d c d | B A B HG2
w:that's what we mean when we say that a thing Is wel-come as flow-ers that bloom in the spring.
w:that's what I mean when I say or I sing, "Oh, both-er the flow-ers that bloom in the spring!"
V:2
F G A d c d | B A B G2 E | F G A d c d | B A B HG2
V:3
d e f b a b | g f g e2 c | d e f b a b | g f g He2
V:4
d e f b a b | g f g e2 c | d e f b a b | g f g He2
V:1
E | A > A A Ae E | A > A A Ae E/- E/ | c > B A B G E | A3 z2
w:Tra, la, la, la, la,* Tra, la, la, la, la,* As we mer-ri-ly dance and we sing,
w:Tra, la, la, la, la,* Tra, la, la, la, la,* I've* got to take un-der my wing,
V:2
E | E > E E E2 C | E > E E E2 C/- C/ | E > D C D D D | C3 z2
V:3
d' | c' > c' c' c'2 a | c' > c' c' c'2 a/- a/ | a > g a g b g | a3 z2
V:4
g | a > a a a2 a | a > a a a2 a/- a/ | e > e e e e e | A3 z2
V:1
E | A > A A Ae A | A > A A (AHa) A | B > c d B e e | A3 z2 |]
w:Tra, la, la, la, la,* Tra, la, la, la, la,* The flow-ers that bloom in the spring.
w:Tra, la, la, la, la,* Tra, la, la, la, la,* The flow-ers that bloom in the spring.
V:2
C | E > E E E2 E | F > F F F- HF F | A > A A G G G | A3 z2 |]
V:3
a | c' > c' c' c'2 c' | c' > c' c' c'- Hc' c' | f' > f' f' e' e' d' | c'3 z2 |]
V:4
A | a > a a a2 a | f > f f f- Hf f | d' > c' b e e e | a3 z2 |]

